packages/ffe-icons/icons/filled/md/personal_video.svg

<svg xmlns="http://www.w3.org/2000/svg" height="24" viewBox="0 -960 960 960" width="24"><path d="M172.309-220.001q-30.308 0-51.308-21t-21-51.308v-455.382q0-30.308 21-51.308t51.308-21h615.382q30.308 0 51.308 21t21 51.308v455.382q0 30.308-21 51.308t-51.308 21H619.999v43.846q0 15.461-10.347 25.807-10.346 10.347-25.807 10.347h-207.69q-15.461 0-25.807-10.347-10.347-10.346-10.347-25.807v-43.846H172.309Z"/></svg>

<svg xmlns="http://www.w3.org/2000/svg" height="24" viewBox="0 -960 960 960" width="24"><path d="M172.31-220Q142-220 121-241q-21-21-21-51.31v-455.38Q100-778 121-799q21-21 51.31-21h615.38Q818-820 839-799q21 21 21 51.31v455.38Q860-262 839-241q-21 21-51.31 21H620v43.84q0 15.47-10.35 25.81Q599.31-140 583.84-140H376.16q-15.47 0-25.81-10.35Q340-160.69 340-176.16V-220H172.31Z"/></svg>
